X:36
T:Tom Billy's Reel
R:Reel
M:4/4
L:1/8
K:D
|:"D"d3A "G"BAFB| "D"AFFF "A"EFDE|"D"F2AF "G"G2BG|"A"ABde "D"fede|!
"D"d3A "G"BAFB| "D"AFFF "A"EFDE|"D"F2AF "G"G2BG|"A"ABde "D"fdd2:|!
|:"D"faab afdf|"G"gefd "A"edBd|"D"faaf a3B|ABde "A"fede|!
"D"faab afdf|"G"gefd "A"edBA|"D"F2AF "G"G2BG|"A"ABde "D"fdd2:|

